X: 3
T: The Irish Rover
R: barndance
M: 4/4
L: 1/8
K: Gmaj
dB |G2 A/B/c d2 ga | bc'/b/ af g2- gf/e/ | d>d f/e/d B>B cB | A2- A>B A2 d/c/B/A/ |
G2- GB/c/ d2- dg/a/ | b2 af g2 fe | d2 d/e/f/g/ ab/a/ fd | g2 g>f g3/ ||
d/ e/f/g/a/ |b2 g>a b2- bg/b/ | a2 a/g/f/e/ d2 d/e/f | g2 g>a b2 gb | a>g fe d2 d/c/B/A/ |
G2 Bc d2 B/c/d | b2- ba/f/ g2- gf/e/ | d>d fg a2- af/d/ | g4 g2 |]


Tune 4786	Setting 30190

